X: 2
T: Ach du lieber Augustin
%R: waltz
N: aka "Buy a Broom", "Did You Ever See a Lassie", etc.
M: 3/4
Q: 1/4=96
L: 1/8
K: F
|:c2cdcB|A2F2F2|G2C2C2|A2F2F2|
c2cdcB|A2F2F2|G2C2C2|F6:|
|:G2C2C2|A2F2F2|G2C2C2|A2F2F2|
c2cdcB|A2F2F2|G2C2C2|F6:|

